symbols/web/local_activity/materialsymbolsoutlined/local_activity_gradN25fill1_40px.svg

<svg xmlns="http://www.w3.org/2000/svg" height="40" width="40"><path d="M15.667 26.625 20 23.292l4.292 3.333-1.667-5.292 4.167-3.375h-5.084L20 12.792l-1.708 5.166h-5.084l4.125 3.375ZM6.25 33.083q-1.125 0-1.875-.75t-.75-1.875v-6.333q1.458-.25 2.458-1.396 1-1.146 1-2.729 0-1.583-1-2.771-1-1.187-2.458-1.354V9.542q0-1.125.75-1.896.75-.771 1.875-.771h27.542q1.125 0 1.875.771t.75 1.896v6.333q-1.5.167-2.479 1.354-.98 1.188-.98 2.771t.98 2.729q.979 1.146 2.479 1.396v6.333q0 1.125-.75 1.875t-1.875.75Z"/></svg>

<svg xmlns="http://www.w3.org/2000/svg" height="40" width="40"><path d="M6.25 33.083Q5.167 33.083 4.396 32.292Q3.625 31.5 3.625 30.458V24.125Q5.083 23.875 6.083 22.688Q7.083 21.5 7.083 20Q7.083 18.5 6.083 17.271Q5.083 16.042 3.625 15.875V9.542Q3.625 8.458 4.396 7.667Q5.167 6.875 6.25 6.875H33.792Q34.833 6.875 35.625 7.667Q36.417 8.458 36.417 9.542V15.875Q34.917 16.042 33.938 17.271Q32.958 18.5 32.958 20Q32.958 21.5 33.938 22.688Q34.917 23.875 36.417 24.125V30.458Q36.417 31.5 35.625 32.292Q34.833 33.083 33.792 33.083ZM15.667 26.625 20 23.292 24.292 26.625 22.625 21.333 26.792 17.958H21.708L20 12.792L18.292 17.958H13.208L17.333 21.333Z"/></svg>
